app/assets/icons/polaris/OrdersMajor.svg

<svg viewBox="0 0 20 20" xmlns="http://www.w3.org/2000/svg"><path d="M11 1a1 1 0 1 0-2 0v7.586l-1.293-1.293a1 1 0 0 0-1.414 1.414l3 3a1 1 0 0 0 1.414 0l3-3a1 1 0 0 0-1.414-1.414l-1.293 1.293v-7.586z"/><path d="M3 14v-11h4v-2h-4.5a1.5 1.5 0 0 0-1.5 1.5v15a1.5 1.5 0 0 0 1.5 1.5h15a1.5 1.5 0 0 0 1.5-1.5v-15a1.5 1.5 0 0 0-1.5-1.5h-4.5v2h4v11h-3.5c-.775 0-1.388.662-1.926 1.244l-.11.12a1.994 1.994 0 0 1-1.464.636 1.994 1.994 0 0 1-1.463-.637l-.111-.12c-.538-.579-1.151-1.243-1.926-1.243h-3.5z"/></svg>

<svg viewBox="0 0 20 20" xmlns="http://www.w3.org/2000/svg"><path d="M11 1a1 1 0 1 0-2 0v7.586L7.707 7.293a1 1 0 0 0-1.414 1.414l3 3a1 1 0 0 0 1.414 0l3-3a1 1 0 0 0-1.414-1.414L11 8.586V1z"/><path d="M3 14V3h4V1H2.5A1.5 1.5 0 0 0 1 2.5v15A1.5 1.5 0 0 0 2.5 19h15a1.5 1.5 0 0 0 1.5-1.5v-15A1.5 1.5 0 0 0 17.5 1H13v2h4v11h-3.5c-.775 0-1.388.662-1.926 1.244l-.11.12A1.994 1.994 0 0 1 10 16a1.994 1.994 0 0 1-1.463-.637l-.111-.12C7.888 14.664 7.275 14 6.5 14H3z"/></svg>
